X:127
%%etbk:tnset id:45,pos:2,rep:3x,ant:
%%etbk:wsite http://www.thesession.org/tunes/display/411
%%etbk:skill ?
%%etbk:pldat 2013-11-19T15:05,2013-11-17T16:01,2013-11-12T17:39,2013-11-10T15:35,2013-11-09T15:06,2013-11-04T17:54,2013-10-21T18:48,2013-09-11T20:07,2013-08-28T16:18,2013-05-22T17:33,2013-05-10T15:53
T: Heather Breeze, The
Z: Piano Box Version by Martin Fleischmann
H: Created 2013-02-19 /  Last Modified 2013-02-19
M: 4/4
L: 1/8
R: reel
K: Gmaj
"G"!1!D!2!G!3!BG !5!dG!3!BG | "D"!1!D!2!F!3!AF !5!cF!3!AF | "G"!1!D!2!G!3!BG !5!dG!3!B!1!G |1 "D"!3!B!5!d!4!c!2!A !3!B!1!G!2!G!1!E :|2 !3!B!5!d!4!c!2!A !3!B!1!G!2!B!3!d ||
"G"!5!g2 !3!gf !3!gbag | "D"!2!fdde !3!fg!5!a!2!f | "G"!3!gggf !3!gbag |1 "D"!2!f!1!d!3!c!1!A !2!B!1!G!2!B!3!d :|2 "D"!2!f!1!d!3!c!1!A !2!B!1!G!2!G!1!E||
